SVG_Azure_Grouped/AI/Cognitive Services Model Optimisation.svg

<?xml version="1.0" encoding="UTF-8" standalone="no"?>
<!-- Generated by Microsoft Visio, SVG Export Cognitive Services Model Optimisation.svg Page-1 -->

<svg
   xmlns:dc="http://purl.org/dc/elements/1.1/"
   xmlns:cc="http://creativecommons.org/ns#"
   xmlns:rdf="http://www.w3.org/1999/02/22-rdf-syntax-ns#"
   xmlns:svg="http://www.w3.org/2000/svg"
   xmlns="http://www.w3.org/2000/svg"
   xmlns:sodipodi="http://sodipodi.sourceforge.net/DTD/sodipodi-0.dtd"
   xmlns:inkscape="http://www.inkscape.org/namespaces/inkscape"
   width="0.78741789in"
   height="0.78748041in"
   viewBox="0 0 56.694099 56.698413"
   xml:space="preserve"
   class="st3"
   version="1.1"
   id="svg41"
   sodipodi:docname="Cognitive Services Model Optimisation.svg"
   style="font-size:12px;overflow:visible;color-interpolation-filters:sRGB;fill:none;fill-rule:evenodd;stroke-linecap:square;stroke-miterlimit:3"
   inkscape:version="0.92.5 (2060ec1f9f, 2020-04-08)"><metadata
   id="metadata47"><rdf:RDF><cc:Work
       rdf:about=""><dc:format>image/svg+xml</dc:format><dc:type
         rdf:resource="http://purl.org/dc/dcmitype/StillImage" /></cc:Work></rdf:RDF></metadata><defs
   id="defs45" /><sodipodi:namedview
   pagecolor="#ffffff"
   bordercolor="#666666"
   borderopacity="1"
   objecttolerance="10"
   gridtolerance="10"
   guidetolerance="10"
   inkscape:pageopacity="0"
   inkscape:pageshadow="2"
   inkscape:window-width="640"
   inkscape:window-height="480"
   id="namedview43"
   showgrid="false"
   inkscape:zoom="1.7151442"
   inkscape:cx="37.795259"
   inkscape:cy="23.447062"
   inkscape:window-x="0"
   inkscape:window-y="0"
   inkscape:window-maximized="0"
   inkscape:current-layer="svg41" />
	<style
   type="text/css"
   id="style2">
	<![CDATA[
		.st1 {fill:#0078d4;stroke:none;stroke-linecap:butt;stroke-width:12.4898}
		.st2 {fill:#50e6ff;stroke:none;stroke-linecap:butt;stroke-width:12.4898}
		.st3 {fill:none;fill-rule:evenodd;font-size:12px;overflow:visible;stroke-linecap:square;stroke-miterlimit:3}
	]]>
	</style>

	<g
   id="g39"
   transform="translate(-12.4898,-12.485872)">
		<title
   id="title4">Page-1</title>
		<g
   id="group18479-1"
   transform="translate(12.4898,-34.0157)">
			<title
   id="title6">Cognitive Services Model Optimisation.18479</title>
			<g
   id="shape18480-2"
   transform="translate(42.2741,-42.2886)">
				<title
   id="title8">Sheet.18480</title>
				<path
   d="M 0,88.79 H 14.42 V 103.2 H 8.45 V 94.75 H 0 Z"
   class="st1"
   id="path10"
   inkscape:connector-curvature="0"
   style="fill:#0078d4;stroke:none;stroke-width:12.48980045;stroke-linecap:butt" />
			</g>
			<g
   id="shape18481-4"
   transform="translate(0,-42.2886)">
				<title
   id="title13">Sheet.18481</title>
				<path
   d="M 5.97,103.2 H 0 V 88.79 h 14.42 v 5.96 H 5.97 Z"
   class="st1"
   id="path15"
   inkscape:connector-curvature="0"
   style="fill:#0078d4;stroke:none;stroke-width:12.48980045;stroke-linecap:butt" />
			</g>
			<g
   id="shape18482-6"
   transform="translate(42.2741)">
				<title
   id="title18">Sheet.18482</title>
				<path
   d="m 8.45,88.79 h 5.97 V 103.2 H 0 v -5.96 h 8.45 z"
   class="st1"
   id="path20"
   inkscape:connector-curvature="0"
   style="fill:#0078d4;stroke:none;stroke-width:12.48980045;stroke-linecap:butt" />
			</g>
			<g
   id="shape18483-8"
   transform="translate(5.7756e-4)">
				<title
   id="title23">Sheet.18483</title>
				<path
   d="M 0,103.2 V 88.79 h 5.97 v 8.45 h 8.45 v 5.96 z"
   class="st1"
   id="path25"
   inkscape:connector-curvature="0"
   style="fill:#0078d4;stroke:none;stroke-width:12.48980045;stroke-linecap:butt" />
			</g>
			<g
   id="shape18484-10"
   transform="translate(11.442,-8.51507)">
				<title
   id="title28">Sheet.18484</title>
				<path
   d="m 0,103.2 c 0,-9.45 7.65,-17.09 17.11,-17.09 9.46,0 17.11,7.64 17.11,17.09 z"
   class="st2"
   id="path30"
   inkscape:connector-curvature="0"
   style="fill:#50e6ff;stroke:none;stroke-width:12.48980045;stroke-linecap:butt" />
			</g>
			<g
   id="shape18485-12"
   transform="translate(18.9669,-30.2348)">
				<title
   id="title33">Sheet.18485</title>
				<path
   d="m 19.14,93.64 c 0,5.27 -4.29,9.56 -9.57,9.56 C 4.29,103.2 0,98.91 0,93.64 c 0,-5.28 4.29,-9.56 9.57,-9.56 5.28,0 9.57,4.28 9.57,9.56 z"
   class="st2"
   id="path35"
   inkscape:connector-curvature="0"
   style="fill:#50e6ff;stroke:none;stroke-width:12.48980045;stroke-linecap:butt" />
			</g>
		</g>
	</g>
</svg>

<?xml version="1.0" encoding="UTF-8" standalone="no"?>
<!DOCTYPE svg PUBLIC "-//W3C//DTD SVG 1.1//EN" "http://www.w3.org/Graphics/SVG/1.1/DTD/svg11.dtd">
<!-- Generated by Microsoft Visio, SVG Export Cognitive Services Model Optimisation.svg Page-1 -->
<svg xmlns="http://www.w3.org/2000/svg" xmlns:xlink="http://www.w3.org/1999/xlink" xmlns:ev="http://www.w3.org/2001/xml-events"
		width="1.13434in" height="1.43331in" viewBox="0 0 81.6725 103.198" xml:space="preserve" color-interpolation-filters="sRGB"
		class="st3">
	<style type="text/css">
	<![CDATA[
		.st1 {fill:#0078d4;stroke:none;stroke-linecap:butt;stroke-width:12.4898}
		.st2 {fill:#50e6ff;stroke:none;stroke-linecap:butt;stroke-width:12.4898}
		.st3 {fill:none;fill-rule:evenodd;font-size:12px;overflow:visible;stroke-linecap:square;stroke-miterlimit:3}
	]]>
	</style>

	<g>
		<title>Page-1</title>
		<g id="group18049-1" transform="translate(12.4898,-34.0157)">
			<title>Cognitive Services Model Optimisation.18049</title>
			<g id="shape18050-2" transform="translate(42.2741,-42.2886)">
				<title>Sheet.18050</title>
				<path d="M0 88.79 L14.42 88.79 L14.42 103.2 L8.45 103.2 L8.45 94.75 L0 94.75 L0 88.79 Z" class="st1"/>
			</g>
			<g id="shape18051-4" transform="translate(2.80775E-13,-42.2886)">
				<title>Sheet.18051</title>
				<path d="M5.97 103.2 L0 103.2 L0 88.79 L14.42 88.79 L14.42 94.75 L5.97 94.75 L5.97 103.2 Z" class="st1"/>
			</g>
			<g id="shape18052-6" transform="translate(42.2741,2.98428E-13)">
				<title>Sheet.18052</title>
				<path d="M8.45 88.79 L14.42 88.79 L14.42 103.2 L0 103.2 L0 97.24 L8.45 97.24 L8.45 88.79 Z" class="st1"/>
			</g>
			<g id="shape18053-8" transform="translate(0.00057756,2.98428E-13)">
				<title>Sheet.18053</title>
				<path d="M0 103.2 L0 88.79 L5.97 88.79 L5.97 97.24 L14.42 97.24 L14.42 103.2 L0 103.2 Z" class="st1"/>
			</g>
			<g id="shape18054-10" transform="translate(11.442,-8.51507)">
				<title>Sheet.18054</title>
				<path d="M0 103.2 C0 93.75 7.65 86.11 17.11 86.11 C26.57 86.11 34.22 93.75 34.22 103.2 L0 103.2 Z" class="st2"/>
			</g>
			<g id="shape18055-12" transform="translate(18.9669,-30.2348)">
				<title>Sheet.18055</title>
				<path d="M19.14 93.64 C19.14 98.91 14.85 103.2 9.57 103.2 C4.29 103.2 0 98.91 0 93.64 C0 88.36 4.29 84.08 9.57 84.08
							 C14.85 84.08 19.14 88.36 19.14 93.64 Z" class="st2"/>
			</g>
		</g>
	</g>
</svg>
